**harm	**harte	**timestamp	**phrase	**leadinstrument	**kern
*M4/4	*M4/4	*	*	*	*
*B-:	*B-:	*	*	*	*B-:
1r;	N	0	.	r	1r;
=1	=1	=1	=1	=1	=1
*>A2_intro	*>A2_intro	*>A2_intro	*>A2_intro	*>A2_intro	*>A2_intro
1I	B-:maj	0.778	newline	voice	1B- 1dd 1ff
=2	=2	=2	=2	=2	=2
1Id	B-:maj/b7	2.963	.	voice	1b- 1dd 1ff
=3	=3	=3	=3	=3	=3
1vi7	G:min7	5.147	.	voice	1G 1b- 1dd 1ff
=4	=4	=4	=4	=4	=4
2IV	E-:sus4(b7,9,#11)	7.332	.	voice	2E- 2g 2b-
2IV	E-:maj(#11)	8.424	.	voice	2E- 2g 2b-
=5	=5	=5	=5	=5	=5
1Ic	B-:maj/5	9.516	newline	voice	1b- 1dd 1F
=6	=6	=6	=6	=6	=6
1V	F:sus4(b7,9)	11.717	.	voice	1F 1a 1cc
=7	=7	=7	=7	=7	=7
1Ic	B-:maj/5	13.917	.	voice	1b- 1dd 1F
=8	=8	=8	=8	=8	=8
1V	F:sus4(b7,9)	16.118	.	voice	1F 1a 1cc
=9	=9	=9	=9	=9	=9
*>B2_verse	*>B2_verse	*>B2_verse	*>B2_verse	*>B2_verse	*>B2_verse
1vi7	G:min7	18.319	newline	voice	1G 1b- 1dd 1ff
=10	=10	=10	=10	=10	=10
1vi7	G:min7	20.438	.	voice	1G 1b- 1dd 1ff
=11	=11	=11	=11	=11	=11
2IV	E-:sus4(b7,9,#11)	22.558	.	voice	2E- 2g 2b-
2IV	E-:maj(#11)	23.618	.	voice	2E- 2g 2b-
=12	=12	=12	=12	=12	=12
1IV	E-:maj(#11)	24.678	.	voice	1E- 1g 1b-
=13	=13	=13	=13	=13	=13
1V	F:sus4	26.797	newline	voice	1F 1a 1cc
=14	=14	=14	=14	=14	=14
1V	F:sus4	28.87	.	voice	1F 1a 1cc
=15	=15	=15	=15	=15	=15
1V	F:sus4	30.942	.	voice	1F 1a 1cc
=16	=16	=16	=16	=16	=16
1V	F:sus4	33.014	.	voice	1F 1a 1cc
=17	=17	=17	=17	=17	=17
*>C_prechorus	*>C_prechorus	*>C_prechorus	*>C_prechorus	*>C_prechorus	*>C_prechorus
1I	B-:maj	35.087	newline	voice	1B- 1dd 1ff
=18	=18	=18	=18	=18	=18
1Id	B-:maj/b7	37.206	.	voice	1b- 1dd 1ff
=19	=19	=19	=19	=19	=19
1vi	G:min	39.325	.	voice	1G 1b- 1dd
=20	=20	=20	=20	=20	=20
1IV	E-:maj	41.444	.	voice	1E- 1g 1b-
=21	=21	=21	=21	=21	=21
1V	F:sus4	43.564	newline	voice	1F 1a 1cc
=22	=22	=22	=22	=22	=22
1V	F:sus4	45.665	.	voice	1F 1a 1cc
=23	=23	=23	=23	=23	=23
1V	F:sus4	47.766	.	voice	1F 1a 1cc
=24	=24	=24	=24	=24	=24
1III7	D:7	49.868	.	voice	1D 1f# 1a 1cc
=25	=25	=25	=25	=25	=25
*>B_verse	*>B_verse	*>B_verse	*>B_verse	*>B_verse	*>B_verse
1vi	G:min	51.969	newline	voice	1G 1b- 1dd
=26	=26	=26	=26	=26	=26
4V	F:sus4	54.046	.	voice	4F 4a 4cc
2.vi	G:min	54.565	.	voice	2G 2b- 2dd
=27	=27	=27	=27	=27	=27
1IV	E-:maj	56.122	.	voice	1E- 1g 1b-
=28	=28	=28	=28	=28	=28
4ii	C:min	58.199	.	voice	4C 4e- 4g
4I	B-:maj	58.718	.	voice	4B- 4dd 4ff
2IV	E-:maj	59.237	.	voice	2E- 2g 2b-
=29	=29	=29	=29	=29	=29
1V	F:sus4	60.275	newline	voice	1F 1a 1cc
=30	=30	=30	=30	=30	=30
1V	F:sus4	62.345	.	voice	1F 1a 1cc
=31	=31	=31	=31	=31	=31
1V	F:sus4	64.415	.	voice	1F 1a 1cc
=32	=32	=32	=32	=32	=32
1V	F:sus4	66.484	.	voice	1F 1a 1cc
=33	=33	=33	=33	=33	=33
*>A_chorus	*>A_chorus	*>A_chorus	*>A_chorus	*>A_chorus	*>A_chorus
1I	B-:maj	68.554	newline	voice	1B- 1dd 1ff
=34	=34	=34	=34	=34	=34
1Id	B-:maj/b7	70.642	.	voice	1b- 1dd 1ff
=35	=35	=35	=35	=35	=35
1vi	G:min	72.73	.	voice	1G 1b- 1dd
=36	=36	=36	=36	=36	=36
1IV	E-:maj	74.818	.	voice	1E- 1g 1b-
=37	=37	=37	=37	=37	=37
1V	F:sus4	76.906	newline	voice	1F 1a 1cc
=38	=38	=38	=38	=38	=38
1V	F:sus4	79.001	.	voice	1F 1a 1cc
=39	=39	=39	=39	=39	=39
1V	F:sus4	81.096	.	voice	1F 1a 1cc
=40	=40	=40	=40	=40	=40
1V	F:sus4	83.191	.	voice	1F 1a 1cc
=41	=41	=41	=41	=41	=41
*>A_solo	*>A_solo	*>A_solo	*>A_solo	*>A_solo	*>A_solo
1I	B-:maj	85.286	newline	guitar	1B- 1dd 1ff
=42	=42	=42	=42	=42	=42
1Id	B-:maj/b7	87.376	.	guitar	1b- 1dd 1ff
=43	=43	=43	=43	=43	=43
1vi	G:min	89.467	.	guitar	1G 1b- 1dd
=44	=44	=44	=44	=44	=44
1IV	E-:maj	91.557	.	guitar	1E- 1g 1b-
=45	=45	=45	=45	=45	=45
1V	F:sus4	93.648	newline	guitar	1F 1a 1cc
=46	=46	=46	=46	=46	=46
1V	F:sus4	95.704	.	guitar	1F 1a 1cc
=47	=47	=47	=47	=47	=47
1III7	D:7	97.76	.	guitar	1D 1f# 1a 1cc
=48	=48	=48	=48	=48	=48
2vi	G:min	99.815	.	guitar	2G 2b- 2dd
2V7b	F:7/3	100.843	.	guitar	2f 2A 2cc 2ee-
=49	=49	=49	=49	=49	=49
*>A2_verse	*>A2_verse	*>A2_verse	*>A2_verse	*>A2_verse	*>A2_verse
1I	B-:maj	101.871	newline	voice	1B- 1dd 1ff
=50	=50	=50	=50	=50	=50
1Id	B-:maj/b7	103.98	.	voice	1b- 1dd 1ff
=51	=51	=51	=51	=51	=51
1vi	G:min	106.089	.	voice	1G 1b- 1dd
=52	=52	=52	=52	=52	=52
1IV	E-:maj	108.198	.	voice	1E- 1g 1b-
=53	=53	=53	=53	=53	=53
1V	F:sus4	110.307	newline	voice	1F 1a 1cc
=54	=54	=54	=54	=54	=54
2V	F:sus4	112.41	.	voice	2F 2a 2cc
2III7	D:7	113.461	.	voice	2D 2f# 2a 2cc
=55	=55	=55	=55	=55	=55
*>B2_verse	*>B2_verse	*>B2_verse	*>B2_verse	*>B2_verse	*>B2_verse
1vi	G:min	114.512	newline	voice	1G 1b- 1dd
=56	=56	=56	=56	=56	=56
4vi	G:min	116.608	.	voice	4G 4b- 4dd
4V	F:sus4(b7)	117.132	.	voice	4F 4a 4cc
4vi7	G:min7	117.656	.	voice	4G 4b- 4dd 4ff
4Vb	F:maj/3	118.18	.	voice	4f 4A 4cc
=57	=57	=57	=57	=57	=57
1IV	E-:maj	118.703	.	voice	1E- 1g 1b-
=58	=58	=58	=58	=58	=58
1IV	E-:maj	120.799	.	voice	1E- 1g 1b-
=59	=59	=59	=59	=59	=59
1V	F:sus4	122.895	newline	voice	1F 1a 1cc
=60	=60	=60	=60	=60	=60
1V	F:sus4	124.965	.	voice	1F 1a 1cc
=61	=61	=61	=61	=61	=61
*>C_prechorus	*>C_prechorus	*>C_prechorus	*>C_prechorus	*>C_prechorus	*>C_prechorus
1I	B-:maj	127.034	newline	voice	1B- 1dd 1ff
=62	=62	=62	=62	=62	=62
1Id	B-:maj/b7	129.111	.	voice	1b- 1dd 1ff
=63	=63	=63	=63	=63	=63
1vi	G:min	131.187	.	voice	1G 1b- 1dd
=64	=64	=64	=64	=64	=64
1IV	E-:maj	133.264	.	voice	1E- 1g 1b-
=65	=65	=65	=65	=65	=65
1V	F:sus4	135.34	newline	voice	1F 1a 1cc
=66	=66	=66	=66	=66	=66
1V	F:sus4	137.431	.	voice	1F 1a 1cc
=67	=67	=67	=67	=67	=67
1V	F:sus4	139.522	.	voice	1F 1a 1cc
=68	=68	=68	=68	=68	=68
1III7	D:7	141.613	.	voice	1D 1f# 1a 1cc
=69	=69	=69	=69	=69	=69
*>B_verse	*>B_verse	*>B_verse	*>B_verse	*>B_verse	*>B_verse
1vi	G:min	143.704	newline	voice	1G 1b- 1dd
=70	=70	=70	=70	=70	=70
4V	F:sus4	145.759	.	voice	4F 4a 4cc
2.vi	G:min	146.273	.	voice	2G 2b- 2dd
=71	=71	=71	=71	=71	=71
1IV	E-:maj	147.815	.	voice	1E- 1g 1b-
=72	=72	=72	=72	=72	=72
4ii	C:min	149.87	.	voice	4C 4e- 4g
4I	B-:maj	150.384	.	voice	4B- 4dd 4ff
2IV	E-:maj	150.898	.	voice	2E- 2g 2b-
=73	=73	=73	=73	=73	=73
1V	F:sus4	151.925	newline	voice	1F 1a 1cc
=74	=74	=74	=74	=74	=74
1V	F:sus4	153.989	.	voice	1F 1a 1cc
=75	=75	=75	=75	=75	=75
1V	F:sus4	156.053	.	voice	1F 1a 1cc
=76	=76	=76	=76	=76	=76
1V	F:sus4	158.116	.	voice	1F 1a 1cc
=77	=77	=77	=77	=77	=77
*>A_chorus	*>A_chorus	*>A_chorus	*>A_chorus	*>A_chorus	*>A_chorus
1I	B-:maj	160.18	newline	voice	1B- 1dd 1ff
=78	=78	=78	=78	=78	=78
1Id	B-:maj/b7	162.267	.	voice	1b- 1dd 1ff
=79	=79	=79	=79	=79	=79
1vi	G:min	164.354	.	voice	1G 1b- 1dd
=80	=80	=80	=80	=80	=80
1IV	E-:maj	166.442	.	voice	1E- 1g 1b-
=81	=81	=81	=81	=81	=81
1V	F:sus4	168.529	newline	voice	1F 1a 1cc
=82	=82	=82	=82	=82	=82
1V	F:sus4	170.58	.	voice	1F 1a 1cc
=83	=83	=83	=83	=83	=83
1V	F:sus4	172.631	.	voice	1F 1a 1cc
=84	=84	=84	=84	=84	=84
1V	F:sus4	174.683	.	voice	1F 1a 1cc
=85	=85	=85	=85	=85	=85
*>A_chorus	*>A_chorus	*>A_chorus	*>A_chorus	*>A_chorus	*>A_chorus
1I	B-:maj	176.734	newline	voice	1B- 1dd 1ff
=86	=86	=86	=86	=86	=86
1Id	B-:maj/b7	178.783	.	voice	1b- 1dd 1ff
=87	=87	=87	=87	=87	=87
1vi	G:min	180.831	.	voice	1G 1b- 1dd
=88	=88	=88	=88	=88	=88
1IV	E-:maj	182.88	.	voice	1E- 1g 1b-
=89	=89	=89	=89	=89	=89
1V	F:sus4	184.928	newline	voice	1F 1a 1cc
=90	=90	=90	=90	=90	=90
1V	F:sus4	186.974	.	voice	1F 1a 1cc
=91	=91	=91	=91	=91	=91
1V	F:sus4	189.019	.	voice	1F 1a 1cc
=92	=92	=92	=92	=92	=92
1V	F:sus4	191.065	.	voice	1F 1a 1cc
=93	=93	=93	=93	=93	=93
*>A_outro	*>A_outro	*>A_outro	*>A_outro	*>A_outro	*>A_outro
1I	B-:maj	193.11	newline	organ	1B- 1dd 1ff
=94	=94	=94	=94	=94	=94
1Id	B-:maj/b7	195.162	.	organ	1b- 1dd 1ff
=95	=95	=95	=95	=95	=95
1vi	G:min	197.214	.	organ	1G 1b- 1dd
=96	=96	=96	=96	=96	=96
1IV	E-:maj	199.266	.	organ	1E- 1g 1b-
=97	=97	=97	=97	=97	=97
*>_fadeout	*>_fadeout	*>_fadeout	*>_fadeout	*>_fadeout	*>_fadeout
1V	F:sus4	201.318	newline	organ	1F 1a 1cc
=98	=98	=98	=98	=98	=98
1V	F:sus4	203.369	.	organ	1F 1a 1cc
=99	=99	=99	=99	=99	=99
1V	F:sus4	205.419	.	organ	1F 1a 1cc
=100	=100	=100	=100	=100	=100
1V	F:sus4	207.47	.	organ	1F 1a 1cc
=101	=101	=101	=101	=101	=101
1I	B-:maj	209.52	newline	organ	1B- 1dd 1ff
=102	=102	=102	=102	=102	=102
1Id	B-:maj/b7	211.224	.	organ	1b- 1dd 1ff
1r;	N	212.928	.	r	1r;
1r;	N	217.48	.	r	1r;
*-	*-	*-	*-	*-	*-
!!!OTL: Here Come Those Tears Again
!!!COC: Jackson Browne
!!!BillboardChartDate: 1977/04/02
!!!BillboardPeak: 23
!!!BillboardWeeksOnChart: 9
!!!SampleTargetRank: 54
!!!SampleActualRank: 54
!!!SampleID#: 0395
!!!RDF**harmony: **recip + pitch class of root + harmonic quality
!!!RDF**harte: Chris Harte's syntax, used by MIREX
!!!RDF**phrase: newline = linebreak in original McGill transcription
!!!RDF**timestamp: McGill audio timestamp in seconds
!!!RDF**leadinstrument: original McGill primary instrumentation annotation
!!!RDT: 2017/01/12/
!!!ENC: Nathaniel Condit-Schultz
!!!EST: Awating manual error checking and editing.
